src/assets/icons/bell.svg

<svg width="19px" height="23px" viewBox="0 0 19 23" version="1.1" xmlns="http://www.w3.org/2000/svg" xmlns:xlink="http://www.w3.org/1999/xlink">
    <!-- Generator: Sketch 48.2 (47327) - http://www.bohemiancoding.com/sketch -->
    <desc>Created with Sketch.</desc>
    <defs></defs>
    <g id="Symbols" stroke="none" stroke-width="1" fill="none" fill-rule="evenodd">
        <g id="MenuBar/Notification" transform="translate(-1.000000, -4.000000)" fill="#A3AFC6" fill-rule="nonzero" stroke="#A3AFC6" stroke-width="0.8">
            <g id="Icons/Notification" transform="translate(-1.000000, 4.000000)">
                <path d="M20.2588421,19.1848094 L18.7429621,16.6595422 C18.044146,15.4939801 17.6744302,14.1598767 17.6744302,12.8001715 L17.6744302,10.5881225 C17.6744302,7.18317255 14.9029892,4.41173149 11.4980393,4.41173149 C8.09308932,4.41173149 5.32164826,7.18317255 5.32164826,10.5881225 L5.32164826,12.8001715 C5.32164826,14.1598767 4.95193253,15.4939801 4.25311645,16.6595422 L2.73723646,19.1848094 C2.65517851,19.3206765 2.65340004,19.4909964 2.73107384,19.628642 C2.8096162,19.7671561 2.95694,19.852771 3.11576184,19.852771 L19.8802753,19.852771 C20.0390971,19.852771 20.1864623,19.7671975 20.2649633,19.628642 C20.3426371,19.490955 20.3409,19.3206765 20.2588421,19.1848094 Z M3.89489876,18.9703999 L5.00929865,17.113053 C5.79104124,15.8107139 6.20397802,14.3195671 6.20397802,12.8001715 L6.20397802,10.5881225 C6.20397802,7.66844771 8.57836448,5.29406124 11.4980393,5.29406124 C14.417714,5.29406124 16.7921005,7.66844771 16.7921005,10.5881225 L16.7921005,12.8001715 C16.7921005,14.3195671 17.2050373,15.8107139 17.9859113,17.113053 L19.1011798,18.9703999 L3.89489876,18.9703999 Z" id="Shape"></path>
                <path d="M11.4980393,1.32351531 C10.5248005,1.32351531 9.73333839,2.11497747 9.73333839,3.08821618 L9.73333839,4.85291704 C9.73333839,5.0964025 9.93099713,5.29406124 10.1745239,5.29406124 C10.4180508,5.29406124 10.6157095,5.0964025 10.6157095,4.85287568 L10.6157095,3.08821618 C10.6157095,2.60116254 11.0109856,2.20588642 11.4980393,2.20588642 C11.9850929,2.20588642 12.380369,2.60116254 12.380369,3.08821618 L12.380369,4.85291704 C12.380369,5.0964025 12.5780277,5.29406124 12.8215546,5.29406124 C13.0650814,5.29406124 13.2627401,5.0964025 13.2627401,4.85287568 L13.2627401,3.08821618 C13.2627401,2.11497747 12.471278,1.32351531 11.4980393,1.32351531 Z" id="Shape"></path>
                <path d="M13.4074169,19.188325 C13.2830064,18.978341 13.0138779,18.9095182 12.8030254,19.0303717 C12.5921315,19.1539136 12.5215715,19.4247792 12.6450721,19.6347632 C12.7597629,19.8297749 12.8224231,20.0635822 12.8224231,20.2938738 C12.8224231,21.0235857 12.2286197,21.6173892 11.4989078,21.6173892 C10.7691959,21.6173892 10.1753925,21.0235857 10.1753925,20.2938738 C10.1753925,20.0635822 10.2380527,19.8297749 10.3527436,19.6347632 C10.4753755,19.4238693 10.4048156,19.1538722 10.1947903,19.0303717 C9.98215927,18.9094768 9.71389926,18.9782996 9.59039874,19.188325 C9.39538703,19.5218508 9.29215283,19.9038918 9.29215283,20.2939152 C9.29219419,21.5106394 10.2812737,22.4997603 11.4980393,22.4997603 C12.7148048,22.4997603 13.7038843,21.5106394 13.7056628,20.2939152 C13.7056628,19.9038918 13.6024286,19.5218508 13.4074169,19.188325 Z" id="Shape"></path>
            </g>
        </g>
    </g>
</svg>

<svg xmlns="http://www.w3.org/2000/svg" width="24" height="24" viewBox="0 0 24 24">
    <g fill="none" fill-rule="evenodd">
        <path d="M0 0h23.823v23.823H0z"/>
        <path fill="#5F5F5F" fill-rule="nonzero" d="M20.259 19.185l-1.516-2.525a7.506 7.506 0 0 1-1.069-3.86v-2.212a6.184 6.184 0 0 0-6.176-6.176 6.184 6.184 0 0 0-6.176 6.176V12.8c0 1.36-.37 2.694-1.069 3.86l-1.516 2.525a.441.441 0 0 0 .379.668H19.88a.443.443 0 0 0 .379-.668zM3.895 18.97l1.114-1.857A8.38 8.38 0 0 0 6.204 12.8v-2.212a5.3 5.3 0 0 1 5.294-5.294 5.3 5.3 0 0 1 5.294 5.294V12.8c0 1.52.413 3.01 1.194 4.313L19.1 18.97H3.895z"/>
        <path fill="#5F5F5F" fill-rule="nonzero" d="M11.498 1.324c-.973 0-1.765.791-1.765 1.764v1.765a.441.441 0 0 0 .883 0V3.088a.883.883 0 0 1 1.764 0v1.765a.441.441 0 0 0 .883 0V3.088c0-.973-.792-1.764-1.765-1.764zM13.407 19.188a.441.441 0 1 0-.762.446 1.325 1.325 0 0 1-1.146 1.983 1.325 1.325 0 0 1-1.146-1.982.443.443 0 0 0-.763-.447 2.208 2.208 0 0 0 1.908 3.311 2.21 2.21 0 0 0 2.208-2.205c0-.39-.104-.772-.299-1.106z"/>
    </g>
</svg>
